X:1
T:Title
%%score { ( 1 3 ) | ( 2 4 ) }
L:1/8
M:6/8
K:F
V:1 treble nm="Grand Piano"
V:3 treble 
V:2 bass 
V:4 bass 
V:1
 z3 z2[Q:1/4=78] C | FFF GGG | ccd c2 A | B[CGB][CEB] [CFA][A,F][K:bass][F,CF] | %4
 z3[K:treble] .G3[K:bass] | FFF GGG | ccd c2 [Fd] | [Ec][Fc][Gc] [Ac][A,F][DGB] | %8
 [CFA][CEA][B,EG] .[A,F]3 | [Ec]cc c2 E | z z/ D/G A2 c | c-[Cc]c c2 E | F2 A [CEG]3 | %13
 [DFd][CFd][Fd] [Fc]3 | [EB][EB][EB] [FA]3 | D[CE][CF] [Dc]2 [DGB] | .[CFA]2 [B,EG] [A,F]3 |] %17
V:2
 z3 z2 [F,A,] | [F,A,C][F,A,C][F,A,C] [E,B,C][E,B,C][E,B,C] | %2
 [F,A,C][F,A,F][F,B,F] [F,A,F]2 [F,CF] | [G,CE]E,C, F,C,A,, | G,,G,,[G,,D,] .[C,F,B,]2 [E,B,] | %5
 [F,A,C][F,A,C][F,A,C] [E,B,C][E,B,C][E,B,C] | [F,A,C][F,A,F][F,B,F] [F,A,F]2 [B,,B,] | %7
 [C,B,][D,A,][E,G,] F,D,B,, | C,C,C, .F,3 | [C,G,][E,G,C][K:treble][G,CE] [CEG]2 [B,C] | %10
 [A,C]2 [G,CE][K:bass] [F,CF]2 [F,A,E] | G,-[E,G,][G,CE][K:treble] [CEG]2 [B,C] | %12
 [A,C]2 [F,CF] C,3 | B,,B,,[B,,B,] [C,A,]3 | [^C,G,][C,G,][C,G,] [D,F,]3 | %15
 [B,,A,][B,,G,][A,,F,] F,G,B,, | z A,C, F,3 |] %17
V:3
 x6 | x6 | x6 | x5[K:bass] x | [F,=B,D][E,B,E][K:treble][B,F] z[K:bass] E,C | x6 | x6 | x6 | x6 | %9
 x6 | .F3 z3 | .E3 z3 | x6 | x6 | x6 | x6 | x6 |] %17
V:4
 x6 | x6 | x6 | x6 | x6 | x6 | x6 | x6 | x6 | x2[K:treble] x4 | x3[K:bass] x3 | .C,3[K:treble] z3 | %12
 x6 | x6 | x6 | z3 .B,,3 | .C,3 z3 |] %17

